images/ic_privacy.svg

<svg width="18" height="18" viewBox="0 0 18 18" fill="none" xmlns="http://www.w3.org/2000/svg">
<g clip-path="url(#clip0)">
<path d="M16.4426 3.25318L9.24963 0.0602162C9.06755 -0.020608 8.85967 -0.0202916 8.67788 0.0612709L1.55508 3.25423C1.30277 3.36736 1.14038 3.61806 1.14038 3.89457V9.43843C1.14038 11.5336 1.96835 13.6754 3.412 15.3145C4.13815 16.139 4.97526 16.7914 5.90015 17.2536C6.89078 17.7488 7.93373 17.9999 9.00002 17.9999C10.4931 17.9999 11.9462 17.5166 13.2025 16.6023C13.5158 16.3743 13.585 15.9354 13.3569 15.622C13.1288 15.3086 12.6899 15.2395 12.3766 15.4675C11.3619 16.206 10.1943 16.5963 9.00005 16.5963C5.62115 16.5963 2.54392 13.1846 2.54392 9.43846V4.34907L8.96637 1.47005L15.4562 4.3509V9.43846C15.4562 10.7307 15.085 12.0385 14.3826 13.2204C14.1846 13.5535 14.2942 13.9841 14.6274 14.1821C14.9606 14.3801 15.3912 14.2705 15.5892 13.9373C16.4204 12.5386 16.8597 10.983 16.8597 9.4385V3.8946C16.8597 3.61715 16.6962 3.36575 16.4426 3.25318Z" fill="#979797"/>
</g>
<defs>
<clipPath id="clip0">
<rect width="18" height="18" fill="white"/>
</clipPath>
</defs>
</svg>

<svg xmlns="http://www.w3.org/2000/svg" fill="none" viewBox="0 0 18 18"><g clip-path="url(#A)"><path d="M16.443 3.253L9.25.06a.7.7 0 0 0-.572.001L1.555 3.254a.7.7 0 0 0-.415.64v5.544c0 2.095.828 4.237 2.272 5.876.726.825 1.563 1.477 2.488 1.94.99.495 2.034.746 3.1.746 1.493 0 2.946-.483 4.202-1.398a.7.7 0 1 0-.826-1.135c-1.015.74-2.182 1.13-3.377 1.13-3.38 0-6.456-3.412-6.456-7.158V4.35l6.422-2.88 6.5 2.88V9.44c0 1.292-.37 2.6-1.074 3.782a.7.7 0 0 0 1.207.717c.83-1.4 1.27-2.954 1.27-4.5V3.895a.7.7 0 0 0-.417-.641z" fill="#979797"/></g><defs><clipPath id="A"><path fill="#fff" d="M0 0h18v18H0z"/></clipPath></defs></svg>
